!!!COM: Palestrina, Giovanni Perluigi da
!!!OPR: Missa In festis Apostolorum (I)
!!!OMD: Sanctus
!!!OTL: Pleni
**kern	**kern	**kern	**kern
*Itenor	*Itenor	*Icalto	*Icant
!Tenor 2	!Tenor 1	!Altus	!Cantus
*clefGv2	*clefGv2	*clefG2	*clefG2
*k[]	*k[]	*k[]	*k[]
*D:dor	*D:dor	*D:dor	*D:dor
*M4/2	*M4/2	*M4/2	*M4/2
=41	=41	=41	=41
0r	0r	0r	1d
.	.	.	1e
=42	=42	=42	=42
0r	0r	1d	1d
.	.	1e	[1g
=43	=43	=43	=43
0r	0r	1d	2g]
.	.	.	2f
.	.	[1g	4e
.	.	.	4f
.	.	.	4g
.	.	.	4a
=44	=44	=44	=44
0r	0r	2g]	4b
.	.	.	4cc
.	.	2f	2dd
.	.	4e	2cc
.	.	4f	.
.	.	4g	2b
.	.	4e	.
=45	=45	=45	=45
1A	0r	2f	2.a
.	.	2.e	.
.	.	.	4e
1B	.	.	4g
.	.	4d	4f
.	.	[2d	4e
.	.	.	4d
=46	=46	=46	=46
1A	0r	2d]	1e
.	.	2c	.
[1d	.	[1f	4d
.	.	.	4e
.	.	.	4f
.	.	.	4g
=47	=47	=47	=47
2d]	0r	2f]	4a
.	.	.	4b
2c	.	2e	2.a
1B	.	1d	.
.	.	.	4g
.	.	.	[2g
=48	=48	=48	=48
2A	1D	2.d	2g]
1d	.	.	2f#
.	.	4c	.
.	1E	4B	1g
.	.	4G	.
2c	.	[2g	.
=49	=49	=49	=49
2B	1D	2g]	1r
2A	.	2f#	.
2.B	[1G	2g	2r
.	.	2G	2d
4A	.	.	.
=50	=50	=50	=50
4B	2G]	2r	2e
4c	.	.	.
1d	2F	2A	2d
.	1E	2B	1g
2c	.	4G	.
.	.	4A	.
=51	=51	=51	=51
2.d	2.D	4B	1.f
.	.	4c	.
.	.	1d	.
8c	4E	.	.
8B	.	.	.
1A	4F	.	.
.	4G	.	.
.	[2A	2c	4e
.	.	.	4d
=52	=52	=52	=52
1E	2A]	1B	0e
.	2G#	.	.
2r	2.A	2.c	.
[2A	.	.	.
.	4G	8d	.
.	.	8e	.
=53	=53	=53	=53
4A]	2F	1f	2r
4G	.	.	.
4A	2D	.	2.a
4B	.	.	.
2.c	1A	[1e	.
.	.	.	4g
.	.	.	4a
4B	.	.	4b
=54	=54	=54	=54
2A	0r	1e]	2cc
2G	.	.	2.b
2c	.	2r	.
.	.	.	4a
2d	.	[2d	[2a
=55	=55	=55	=55
1B-	0r	4d]	2a]
.	.	4c	.
.	.	4d	2g
.	.	4e	.
2.A	.	2f	1a
.	.	[2e	.
4G	.	.	.
=56	=56	=56	=56
2F	0r	4e]	2r
.	.	4d	.
2G	.	1d	2.g
1E	.	.	.
.	.	.	4f
.	.	2c#	4g
.	.	.	4a
=57	=57	=57	=57
1D	2r	2.d	2b-
.	2.D	.	2a
.	.	8c	.
.	.	8B	.
2r	.	1A	2.f
.	4C	.	.
[2A	4D	.	.
.	4E	.	4g
=58	=58	=58	=58
4A]	2.F	2r	1.a
4G	.	.	.
4A	.	2f	.
4B	4G	.	.
2c	2A	2.e	.
[2B	2E	.	2g
.	.	4d	.
=59	=59	=59	=59
4B]	2F	2c	1f
4A	.	.	.
1A	2D	2d	.
.	1E	1B	[1e
2G#	.	.	.
=60	=60	=60	=60
4A	1A	2A	1e]
4B	.	.	.
4c	.	1a	.
4A	.	.	.
1B	2r	.	1d
.	[2d	2g	.
=61	=61	=61	=61
1A	2d]	2f	0r
.	2c	2e	.
1r	2B-	2d	.
.	2A	[2e	.
=62	=62	=62	=62
0r	1G	4e]	2r
.	.	4d	.
.	.	2g	1dd
.	1A	2f	.
.	.	[2e	2cc
=63	=63	=63	=63
0r	2.D	4e]	2b-
.	.	4d	.
.	.	1d	2a
.	4F	.	.
.	1E	.	1g
.	.	2c	.
=64	=64	=64	=64
2r	1D	1f	1a
1d	.	.	.
.	1r	2r	2d
2c	.	2e	2e
=65	=65	=65	=65
2B-	0r	2d	1f
2A	.	2f	.
1G	.	4e	1g
.	.	4d	.
.	.	[2d	.
=66	=66	=66	=66
1A	1r	2d]	2e
.	.	2c#	2.a
4D	2r	1d	.
4E	.	.	4g
4F	[2d	.	4a
4D	.	.	4f
=67	=67	=67	=67
1E	2d]	2r	1g
.	2c	1g	.
1D	2B-	.	1r
.	2A	2f	.
=68	=68	=68	=68
0r	1G	2e	2r
.	.	2d	2g
.	1A	1c	2f
.	.	.	2e
=69	=69	=69	=69
0r	4D	1d	4f
.	4D	.	4g
.	4F	.	2.a
.	4D	.	.
.	1E	4G	.
.	.	4A	4g
.	.	4B	[2g
.	.	4G	.
=70	=70	=70	=70
2r	1D	0A	2g]
1d	.	.	2f
.	2r	.	1e
2c	[2A	.	.
=71	=71	=71	=71
1B-	2A]	1r	2d
.	2G	.	1dd
2A	2F	2r	.
2G	2E	[2g	2cc
=72	=72	=72	=72
2.d	1D	2g]	2b-
.	.	2f	2a
4c	.	.	.
1B	1E	2.e	1g
.	.	4d	.
=73	=73	=73	=73
1A	2F	2c	1a
.	1D	1f	.
2r	.	.	2d
[2A	2C#	2e	2e
=74	=74	=74	=74
4A]	1D	1.d	2.f
4G	.	.	.
4F	.	.	.
4E	.	.	4g
2D	2.F	.	1a
[2d	.	2f	.
.	4G	.	.
=75	=75	=75	=75
2d]	0A	0e	[0a
4c#	.	.	.
4B	.	.	.
1c#	.	.	.
=76	=76	=76	=76
[0d	[0D	[0f#	1a_
.	.	.	1a_
=77	=77	=77	=77
0d]	0D]	0f#]	0a]
*-	*-	*-	*-
!!!CDT: 1525/^1526/-1594/2/2
!!!OCY: Italia
!!!AGN: Mass (Paraphrase)
!!!AST: renaissance, vocal
!!!ASW: Gregorian Mass
!!!PWK: Masses, Book Mantuan II
!!!RNB: Cadence finals: A,E
!!!YOR: Le Opere Complete, v. 19, p. 43
!!!YOO: Rome, Italy: Fratelli Scalera
!!!END: 1992//
!!!EED: John Miller
!!!YEC: Copyright 2000, John Miller
!!!YEN: United States of America
!!!YEM: Rights to all derivative electronic formats reserved.
!!!YEM: Refer to licensing agreement for further details.
!!!YEM: This file must be accompanied by the licensing agreement.
!!!YEM: A copy of the licensing agreement may be found at http://www.music-cog.ohio-state.edu/HumdrumDatabases/Palestrina/license.txt
!!!EMD: converted to Humdrum by Bret Aarden
